!!!!SEGMENT: Gom2016-Conceptio_tua_Dei_genitrix_virgo.krn
!!!id: Gom2016
!!!AGN: Motet
!!!voices: 5
!!!COM: Nicolas Gombert
!!!OTL: Conceptio tua Dei genitrix virgo
**kern	**kern	**kern	**kern	**kern
*part5	*part4	*part3	*part2	*part1
*staff5	*staff4	*staff3	*staff2	*staff1
*I"Bassus	*I"Tenor II	*I"Tenor I	*I"Altus	*I"Superius
*I'B	*I'T. II	*I'T. I	*I'A	*I'S
*clefF4	*clefGv2	*clefGv2	*clefGv2	*clefG2
*k[b-]	*k[b-]	*k[b-]	*k[b-]	*k[b-]
*M2/1	*M2/1	*M2/1	*M2/1	*M2/1
*met(C|)	*met(C|)	*met(C|)	*met(C|)	*met(C|)
=1	=1	=1	=1	=1
!!section: Prima pars: Conceptio tua Dei genitrix virgo
!!!OMD: Prima pars: Conceptio tua Dei genitrix virgo
0r	0r	1G	0r	0r
.	.	1G	.	.
=2	=2	=2	=2	=2
1D	0r	1F	0r	0r
1D	.	1B-y	.	.
=3	=3	=3	=3	=3
1C	0r	1.c	0r	0r
1F	.	.	.	.
.	.	4B-y	.	.
.	.	4A	.	.
=4	=4	=4	=4	=4
2G	0r	4B-y	0r	1d
.	.	4c	.	.
1B-y	.	4d	.	.
.	.	4e	.	.
.	.	2f	.	1d
4A	.	2g	.	.
4G	.	.	.	.
=5	=5	=5	=5	=5
1A	0r	1e	0r	1c
1D	.	1d	.	1f
=6	=6	=6	=6	=6
1.G	0r	2.B-y	0d	2g
.	.	.	.	1b-y
.	.	4c	.	.
.	.	4d	.	.
.	.	4e	.	.
2F	.	[2f	.	[2a
=7	=7	=7	=7	=7
1B-y	0r	2f]	1d	2a]
.	.	4e	.	2g
.	.	4d	.	.
1A	.	1e	1c	[1a
=8	=8	=8	=8	=8
1D	0r	1d	1f	2a]
.	.	.	.	4g
.	.	.	.	4f
2E	.	2c	2.g	2e
[2G	.	2B-y	.	2d
.	.	.	4f	.
=9	=9	=9	=9	=9
4G]	1G	2G	4e	1g
4F	.	.	4d	.
4E	.	1B-y	1d	.
4D	.	.	.	.
1E	1G	.	.	1r
.	.	4A	2c#i	.
.	.	4G	.	.
=10	=10	=10	=10	=10
2.D	1F	2B-y	1d	1d
.	.	1A	.	.
4C	.	.	.	.
1BB-y	1B-y	.	1D	1d
.	.	2G	.	.
=11	=11	=11	=11	=11
1AA	1.c	1A	2F	1c
.	.	.	2E	.
1r	.	1F	1A	1f
.	4B-y	.	.	.
.	4A	.	.	.
=12	=12	=12	=12	=12
0r	2B-y	0r	2G	2g
.	1d	.	1B-y	2f
.	.	.	.	2g
.	2c	.	2A	[2a
=13	=13	=13	=13	=13
1r	1d	2r	1B-y	2a]
.	.	2d	.	2g
1A	1r	2c	1A	1a
.	.	2A	.	.
=14	=14	=14	=14	=14
2G	1r	2B-y	0r	0r
2E	.	1c	.	.
2F	1d	.	.	.
[2G	.	2B-y	.	.
=15	=15	=15	=15	=15
4G]	2c	2.A	0r	1a
4F	.	.	.	.
2F	2A	.	.	.
.	.	4F	.	.
1E	2B-y	1G	.	2g
.	[2c	.	.	2e
=16	=16	=16	=16	=16
0D	2c]	0d	1r	2f
.	2B-y	.	.	1g
.	1A	.	1d	.
.	.	.	.	2f
=17	=17	=17	=17	=17
0r	1A	0r	2c	2e
.	.	.	2A	2c
.	2G	.	2B-y	2d
.	2E	.	[2c	[2e
=18	=18	=18	=18	=18
0r	2F	1A	2c]	4e]
.	.	.	.	4d
.	2F	.	2A	1d
.	1E	2G	2B-y	.
.	.	2E	2G	2c#i
=19	=19	=19	=19	=19
1r	1D	2F	2A	1d
.	.	1G	2B-y	.
1D	1r	.	1A	2r
.	.	2F	.	2d
=20	=20	=20	=20	=20
2C	1A	1E	1c	2e
2AA	.	.	.	2c
2BB-y	2G	1r	2B-y	2d
2C	2E	.	[2A	[2e
=21	=21	=21	=21	=21
2D	2F	0r	4A]	4e]
.	.	.	4F	4d
2BB-y	2D	.	2G	1d
1AA	1E	.	2A	.
.	.	.	2A	2c
=22	=22	=22	=22	=22
1BB-y	2D	1d	2G	4d
.	.	.	.	4e
.	2B-y	.	2F	4f
.	.	.	.	4d
2C	2.A	2c	2E	2e
[2D	.	2A	2D	2f
.	4G	.	.	.
=23	=23	=23	=23	=23
2D]	2F	2B-y	2d	2d
2C	2E	2c	2e	1g
1D	2F	1A	2.d	.
.	2D	.	.	2f#i
.	.	.	4c	.
=24	=24	=24	=24	=24
1E	2r	1G	2B-y	1g
.	1B-y	.	4A	.
.	.	.	4G	.
1D	.	2F	1d	1r
.	2A	[2f	.	.
=25	=25	=25	=25	=25
2r	1G	2f]	1r	0r
1B-y	.	2e	.	.
.	1F	2d	1f	.
2A	.	2c	.	.
=26	=26	=26	=26	=26
1.G	2G	1B-y	2e	1.b-y
.	2B-y	.	2d	.
.	1c	1r	2e	.
2F	.	.	2f	2a
=27	=27	=27	=27	=27
2G	1B-y	2r	1d	1.g
2B-y	.	1B-y	.	.
1c	1r	.	2r	.
.	.	2A	2c	2f
=28	=28	=28	=28	=28
2.B-y	0r	2G	2.d	2g
.	.	2d	.	2b-y
8AL	.	.	8cL	.
8GJ	.	.	8B-yJ	.
2F	.	[1f	2d	2.a
4D	.	.	[2d	.
4E	.	.	.	4g
=29	=29	=29	=29	=29
4F	1r	2f]	2d]	1a
4G	.	.	.	.
1A	.	2e	2c	.
.	2r	2.d	1B-y	2f
2G	[2B-y	.	.	[2g
.	.	8cL	.	.
.	.	8dJ	.	.
=30	=30	=30	=30	=30
2E	2B-]	2e	0r	2g]
2F	2A	2d	.	1f
1C	1G	1c	.	.
.	.	.	.	2e
=31	=31	=31	=31	=31
2D	1F	2.A	1r	1f
2F	.	.	.	.
.	.	4B-y	.	.
2E	2G	2c	2r	1r
2D	2B-y	2d	2F	.
=32	=32	=32	=32	=32
2C	2c	2e	2G	2r
2BB-y	1d	2d	2B-y	2f
1E-i	.	1G	2B-y	2g
.	2c	.	4A	2e
.	.	.	4G	.
=33	=33	=33	=33	=33
1D	1d	2A	2F	2f
.	.	2F	2B-y	2d
1C	1r	2G	2c	2e
.	.	2E	2A	2c
=34	=34	=34	=34	=34
1BB-y	2r	2F	1B-y	1d
.	2B-y	2d	.	.
1r	2c	2e	1A	2r
.	2A	2c	.	2f
=35	=35	=35	=35	=35
1r	1.B-y	2d	1G	2g
.	.	2B-y	.	2e
1F	.	1c	1r	2f
.	2A	.	.	2f
=36	=36	=36	=36	=36
1G	1B-y	2B-y	2r	1d
.	.	2d	2B-y	.
2E	2G	2e-i	2c	2r
2F	2A	2c	2A	[2f
=37	=37	=37	=37	=37
1BB-y	1F	1d	2.B-y	2f]
.	.	.	.	2g
.	.	.	4A	.
2C	2r	2c	2G	2e
2D	2F	2f	2d	[2a
=38	=38	=38	=38	=38
2E-i	2G	1e	2B-y	4a]
.	.	.	.	4g
2C	2E	.	2c	1g
1D	2.F	2.d	1A	.
.	.	.	.	2f
.	4D	4c	.	.
=39	=39	=39	=39	=39
2r	1E	2B-y	1G	1g
1G	.	4A	.	.
.	.	4G	.	.
.	1D	1A	2r	1r
2F	.	.	2d	.
=40	=40	=40	=40	=40
1B-y	1G	1G	0d	0r
2A	2F	1r	.	.
[2G	[2B-y	.	.	.
=41	=41	=41	=41	=41
2G]	2B-]	0r	1d	1r
2F	2.A	.	.	.
1E	.	.	1c	2r
.	4G	.	.	.
.	2G	.	.	[2g
=42	=42	=42	=42	=42
1D	1A	2r	1d	2g]
.	.	2d	.	2f
2r	2.G	1d	2.B-y	1b-y
[2G	.	.	.	.
.	4F	.	4c	.
=43	=43	=43	=43	=43
2G]	1D	0d	4d	1a
.	.	.	4e	.
2F	.	.	1f	.
1B-y	1r	.	.	2f
.	.	.	4e	2g
.	.	.	4d	.
=44	=44	=44	=44	=44
1.A	0r	1c	2e	1a
.	.	.	2c	.
.	.	1B-y	2.d	2f
2G	.	.	.	2g
.	.	.	4e	.
=45	=45	=45	=45	=45
2F	1F	2c	1f	2a
2D	.	1d	.	1b-y
1E	1G	.	1r	.
.	.	2c	.	4a
.	.	.	.	4g
=46	=46	=46	=46	=46
0D	2A	1d	1r	2f
.	2B-y	.	.	1g
.	1A	1r	1d	.
.	.	.	.	2f
=47	=47	=47	=47	=47
0r	0r	2r	2c	2e
.	.	1d	2B-y	2d
.	.	.	2A	2.e
.	.	2c	[2a	.
.	.	.	.	8dL
.	.	.	.	8eJ
=48	=48	=48	=48	=48
0r	1.d	1B-y	2a]	2f
.	.	.	2g	2d
.	.	1A	2f	1a
.	2c	.	2e	.
=49	=49	=49	=49	=49
1.G	2.B-y	4G	1g	1d
.	.	4A	.	.
.	.	4B-y	.	.
.	4A	4c	.	.
.	2G	1d	2r	1r
2F	2A	.	[2d	.
=50	=50	=50	=50	=50
1E	2B-y	0r	2d]	1.g
.	2G	.	2c	.
1D	1d	.	2B-y	.
.	.	.	2A	2f
=51	=51	=51	=51	=51
4C	2G	1.g	2c	2e
4D	.	.	.	.
4E	2c	.	4G	2e
4F	.	.	4A	.
2G	2B-y	.	4B-y	2d
.	.	.	4c	.
2D	[2A	2f	2d	2f
=52	=52	=52	=52	=52
2E	4A]	2e	2B-y	2g
.	4G	.	.	.
2C	1G	2e	2c	2e
2.D	.	2d	1A	2f
.	2F	2A	.	[2d
4C	.	.	.	.
=53	=53	=53	=53	=53
2BB-y	4G	2B-y	2r	2d]
.	4F	.	.	.
2C	4E	2G	1G	2e
.	4D	.	.	.
1AA	2E	1A	.	1c
.	2A	.	2F#i	.
=54	=54	=54	=54	=54
1GG	2B-y	2r	2G	1r
.	2B-y	2d	1g	.
1r	2c	2e	.	2r
.	2A	2c	2f	2a
=55	=55	=55	=55	=55
2r	1G	2d	1g	2b-y
2G	.	2e	.	2b-y
2A	2r	2c	2e	2cc
2F	2A	[2d	2f	[2a
=56	=56	=56	=56	=56
2G	2B-y	4d]	2d	4a]
.	.	4B-y	.	4g
2E	2G	2c	2e	1g
1D	1A	[1d	4f	.
.	.	.	4e	.
.	.	.	4d	2f#i
.	.	.	4c	.
=57	=57	=57	=57	=57
2r	1G	0d]	2.B-y	[0g
2G	.	.	.	.
.	.	.	4A	.
1B-y	2r	.	2G	.
.	2G	.	2B-y	.
=58	=58	=58	=58	=58
2G	1B-y	1r	1d	0g]
1B-y	.	.	.	.
.	2G	1d	1B-y	.
4A	2B-y	.	.	.
4G	.	.	.	.
=59	=59	=59	=59	=59
2A	2c	1f	0r	0r
1B-y	1d	.	.	.
.	.	2d	.	.
2A	2c	2f	.	.
=60	=60	=60	=60	=60
2G	2B-y	2e	0r	1r
2F	2A	1d	.	.
1E	1G	.	.	1g
.	.	2c#i	.	.
=61	=61	=61	=61	=61
2D	0F	1d	2r	1b-y
2BB-y	.	.	2d	.
1D	.	2c	2.f	2.a
.	.	[2f	.	.
.	.	.	4e	8gL
.	.	.	.	8aJ
=62	=62	=62	=62	=62
2BB-y	1r	2f]	2d	2b-y
2C	.	2e	2c	1a
2D	1D	2f	1B-y	.
2GG	.	[2d	.	2g
=63	=63	=63	=63	=63
2.D	1.F	4d]	1A	1a
.	.	8cL	.	.
.	.	8B-yJ	.	.
.	.	1A	.	.
4C	.	.	.	.
1BB-y	.	.	1r	2r
.	4E	2G	.	[2d
.	4D	.	.	.
=64	=64	=64	=64	=64
1AA	1E	2.A	2r	2d]
.	.	.	1A	2c
.	.	4G	.	.
1r	2D	2F	.	2f
.	[2G	2E	2G	2g
=65	=65	=65	=65	=65
2r	2G]	1D	1d	2.a
1D	2F	.	.	.
.	.	.	.	4g
.	2B-y	1r	1r	2f
2C	[2c	.	.	2e
=66	=66	=66	=66	=66
2F	2c]	2r	0r	1d
2G	2B-y	1G	.	.
2A	2c	.	.	1r
2D	2d	2F	.	.
=67	=67	=67	=67	=67
1E	2.G	2B-y	2r	1r
.	.	2c	1G	.
.	4A	.	.	.
1D	2B-y	2.d	.	2r
.	2A	.	2F	[2d
.	.	4c	.	.
=68	=68	=68	=68	=68
0r	2G	2B-y	2B-y	2d]
.	2A	1A	2c	2c
.	2.B-y	.	2.d	2f
.	.	2G	.	2g
.	8AL	.	4e	.
.	8GJ	.	.	.
=69	=69	=69	=69	=69
2r	2.F	2c	1f	0a
1D	.	2d	.	.
.	4G	.	.	.
.	1A	2f	1r	.
2C	.	2e	.	.
=70	=70	=70	=70	=70
2.F	2D	2d	0r	[0a
.	1F	2c	.	.
4E	.	.	.	.
2D	.	2d	.	.
2C	2E	2e	.	.
=71	=71	=71	=71	=71
1D	2F	1d	2r	0a]
.	2D	.	1d	.
1AA	1E	1r	.	.
.	.	.	2c	.
=72	=72	=72	=72	=72
1D	2.F	0r	2A	1r
.	.	.	2B-y	.
.	4G	.	.	.
1r	1A	.	2c	2r
.	.	.	2c	[2a
=73	=73	=73	=73	=73
1r	0r	1d	1B-y	2a]
.	.	.	.	2g
1A	.	2c	1A	2e
.	.	2A	.	2f
=74	=74	=74	=74	=74
2G	0r	2B-y	1r	2.g
2E	.	1c	.	.
.	.	.	.	8fL
.	.	.	.	8gJ
2F	.	.	1d	2a
2G	.	2B-y	.	2g
=75	=75	=75	=75	=75
2A	1A	2c	2c	2e
2F	.	1d	2A	2f
1E	2G	.	2B-y	1g
.	2E	2c	2G	.
=76	=76	=76	=76	=76
1D	2F	2A	1d	2f
.	1G	2B-y	.	2d
1r	.	1A	2c	2e
.	2F	.	2A	2f
=77	=77	=77	=77	=77
1r	2E	2G	2B-y	2g
.	2D	1B-y	1d	2f
1G	1E	.	.	2g
.	.	4A	2c	4f
.	.	4G	.	4e
=78	=78	=78	=78	=78
2F	1D	1A	1d	1f
2D	.	.	.	.
2E	1r	2G	2c	2g
2F	.	2c	2A	2a
=79	=79	=79	=79	=79
2G	0r	2B-y	2B-y	2d
2E	.	2G	2c	1g
1D	.	1A	2.d	.
.	.	.	.	2f
.	.	.	4c	.
=80	=80	=80	=80	=80
2G	1r	1G	2B-y	2d
2E	.	.	1c	2e
1D	1F	1r	.	1f
.	.	.	2B-y	.
=81	=81	=81	=81	=81
1C	1G	2r	1c	1e
.	.	2c	.	.
1r	1B-y	1d	1G	1r
=82	=82	=82	=82	=82
0r	2A	2.f	0r	2r
.	1B-y	.	.	2f
.	.	4e	.	.
.	.	4d	.	2g
.	.	4c	.	.
.	2A	[2f	.	2a
=83	=83	=83	=83	=83
0r	1G	2f]	1B-y	1b-y
.	.	2e	.	.
.	1F	1f	2c	2.a
.	.	.	2d	.
.	.	.	.	8gL
.	.	.	.	8fJ
=84	=84	=84	=84	=84
1C	1r	1c	1e-i	1g
2D	1F	1A	1d	2f
2F	.	.	.	2a
=85	=85	=85	=85	=85
2E	2G	2B-y	1r	2g
2D	2B-y	2d	.	2f
2F	2A	2c	2r	1f
2D	2F	[2B-y	2B-y	.
=86	=86	=86	=86	=86
1C	2G	2B-]	2c	1r
.	4F	2A	2e-i	.
.	4E	.	.	.
2BB-y	1F	1B-y	1d	1f
2D	.	.	.	.
=87	=87	=87	=87	=87
2E	2r	0r	1B-y	2g
2G	2G	.	.	2b-y
2F	2A	.	2c	2a
2C	2c	.	2e-i	[2g
=88	=88	=88	=88	=88
2D	2A	1r	1d	4g]
.	.	.	.	4f
2BB-y	2B-y	.	.	1f
1C	1G	2r	1c	.
.	.	[2c	.	2e
=89	=89	=89	=89	=89
1F	1F	2c]	1A	1f
.	.	2A	.	.
2r	2G	2B-y	1r	2r
[2F	2A	2c	.	[2a
=90	=90	=90	=90	=90
2F]	1D	1d	1r	2a]
2D	.	.	.	2f
2E	1r	1c	2r	2g
2F	.	.	2f	2a
=91	=91	=91	=91	=91
2G	0r	2B-y	1d	2b-y
2B-y	.	1c	.	2g
1A	.	.	1e	1a
.	.	2c	.	.
=92	=92	=92	=92	=92
1D	2r	4d	1f	0r
.	.	4B-y	.	.
.	1B-y	1d	.	.
1E	.	.	1g	.
.	2G	2c#i	.	.
=93	=93	=93	=93	=93
2D	2A	1d	2f	2r
1G	2B-y	.	2d	2b-y
.	1c	1r	2e	2g
2F	.	.	2f	2a
=94	=94	=94	=94	=94
2G	1B-y	1d	2d	1b-y
2B-y	.	.	1g	.
1A	2r	2e	.	1cc
.	2A	2c	2f	.
=95	=95	=95	=95	=95
1G	4B-y	2d	2g	2b-y
.	4G	.	.	.
.	2B-y	2d	2d	1g
2r	2A	1c	2e	.
2A	2A	.	2c	2f
=96	=96	=96	=96	=96
2.B-y	1G	1r	2.d	2g
.	.	.	.	1b-y
4A	.	.	4c	.
2G	2r	2r	2B-y	.
2F	2A	2f	2c	[2a
=97	=97	=97	=97	=97
1E	2B-y	2g	2e-i	4a]
.	.	.	.	4g
.	2G	2e	2c	1g
1D	2B-y	2f	1d	.
.	2A	[2d	.	2f#i
=98	=98	=98	=98	=98
2r	2.G	4d]	2B-y	1g
.	.	4G	.	.
2B-y	.	1g	2d	.
.	4B-y	.	.	.
2c	1A	.	2e-i	1r
2A	.	2f	2c	.
=99	=99	=99	=99	=99
1B-y	2G	1g	2d	2r
.	2d	.	1g	2b-y
1A	2e	1c	.	2cc
.	2c	.	2f	2a
=100	=100	=100	=100	=100
1G	2d	1B-y	2g	2.b-y
.	1G	.	2d	.
.	.	.	.	4a
2C	.	2c	2e	2g
2F	2F	2A	2c	[2a
=101	=101	=101	=101	=101
2E	2G	2B-y	1e-i	4a]
.	.	.	.	4g
2C	2E	2c	.	1g
1D	1F	1A	1d	.
.	.	.	.	2f
=102	=102	=102	=102	=102
1GG	1D	[0Gl	2B-y	[0gl
.	.	.	2d	.
[1C	1r	.	2e-i	.
.	.	.	2c	.
=103	=103	=103	=103	=103
2C]	2r	0G_	2e-i	0g_
2BB-y	2D	.	2d	.
1C	2E	.	1c	.
.	2C	.	.	.
=104	=104	=104	=104	=104
[0GGl	1E	0G_	[0B-yl	0g_
.	1D	.	.	.
=105	=105	=105	=105	=105
0GG]	0Dl	0G]	0B-]	0g]
==	==	==	==	==
*-	*-	*-	*-	*-
!!!system-decoration: s1,s2,s3,s4,s5
!!!RDF**kern: i = editorial accidental
!!!RDF**kern: l = terminal long
!!!ENC: Janosch Umbreit
!!!END: 2026/05/22
!!!EED: Benjamin Ory
!!!EEV: 2026/06/09
!!!YEC: Copyright 2026 Benjamin Ory, All Rights Reserved
!!!ONB: Translated from MusicXML on 2026/06/09
!!muse2ps: C^@{COM}^i2I150v90,90,90,90,120c120z18l2770t130
